X: 1
T: Kilfodda, The
M: 4/4
L: 1/8
C: Larry Redican
K: G
BedB AcBA|GBAG EFGE|D~B,3 DEGA|BGdB ABcA|
BedB AcBA|GBAG EFGE|D~B,3 DEGA|1 BdAF G GA:|BdAF GABc||
d3B cBAF|GABG AGEG|DGdG eGdG|cBAG FGAB|
cBce dBcd|edef gdBG|DGBG DGBe|1 dBAB GABc:|dBAB G3A||
